/* XPM */
static char *close_active[] = {
/* columns rows colors chars-per-pixel */
"20 24 66 1 ",
"  c #8A7349",
". c #F3E6C8",
"X c #F3E6C8",
"o c #D9C7A3",
"O c #B89B6A",
"+ c #8A7349",
"@ c #D9C7A3",
"# c #F3E6C8",
"$ c #D9C7A3",
"% c #D9C7A3",
"& c #D9C7A3",
"* c #D9C7A3",
"= c #D9C7A3",
"- c #F3E6C8",
"; c #D9C7A3",
": c #D9C7A3",
"> c #F3E6C8",
", c #B89B6A",
"< c #D9C7A3",
"1 c #D9C7A3",
"2 c #D9C7A3",
"3 c #D9C7A3",
"4 c #D9C7A3",
"5 c #D9C7A3",
"6 c #D9C7A3",
"7 c #B89B6A",
"8 c #D9C7A3",
"9 c #D9C7A3",
"0 c #D9C7A3",
"q c #D9C7A3",
"w c #B89B6A",
"e c #D9C7A3",
"r c #C4B08A",
"t c #D9C7A3",
"y c #B89B6A",
"u c #B89B6A",
"i c #D9C7A3",
"p c #D9C7A3",
"a c #D9C7A3",
"s c #D9C7A3",
"d c #D9C7A3",
"f c #C4B08A",
"g c #D9C7A3",
"h c #C4B08A",
"j c #D9C7A3",
"k c #D9C7A3",
"l c #C4B08A",
"z c #D9C7A3",
"x c #C4B08A",
"c c #D9C7A3",
"v c #D9C7A3",
"b c #D9C7A3",
"n c #D9C7A3",
"m c #D9C7A3",
"M c #D9C7A3",
"N c #D9C7A3",
"B c #D9C7A3",
"V c #F3E6C8",
"C c #D9C7A3",
"Z c #D9C7A3",
"A c #D9C7A3",
"S c #D9C7A3",
"D c #F3E6C8",
"F c #F3E6C8",
"G c #F3E6C8",
"H c #F3E6C8",
/* pixels */
"++++++++++++++++++++",
"....................",
"66o%%%%%%%%%%%%%%o66",
"30C              C03",
"05 8............8 50",
": oXXXXXXXXXXXXXX5 :",
"p X**************o p",
"n X<<<Ouj<<jurF<<o n",
"1 X33OD#,AA,#Vr33o 1",
"g Xtty#-#7w#-#ytto g",
"B X99k,#->>-#,k99o B",
"S X222s7>-->ws222o S",
"m XoooZw>-->7Zoooo m",
"d Xiix,#->>-#,xiio d",
"N X11y#-#w7#-#y11o N",
"M XqqOG#,ll,#Vrqqo M",
"c X:::Ouh::hurH::o c",
"z X==============o z",
"b o$$$$$$$$$$$$$$5 b",
"ae f;;;;;;;;;;;;f ea",
"vo8              8ov",
"44e&&&&&&&&&&&&&&e44",
"@@@@@@@@@@@@@@@@@@@@",
"OOOOOOOOOOOOOOOOOOOO"
};
