/* XPM */
static char *close_pressed[] = {
/* columns rows colors chars-per-pixel */
"20 24 73 1 ",
"  c #8A7349",
". c #D9C7A3",
"X c #B89B6A",
"o c #D9C7A3",
"O c #F3E6C8",
"+ c #D9C7A3",
"@ c #D9C7A3",
"# c #F3E6C8",
"$ c #D9C7A3",
"% c #D9C7A3",
"& c #D9C7A3",
"* c #C4B08A",
"= c #F3E6C8",
"- c #B89B6A",
"; c #D9C7A3",
": c #F3E6C8",
"> c #D9C7A3",
", c #D9C7A3",
"< c #D9C7A3",
"1 c #D9C7A3",
"2 c #D9C7A3",
"3 c #D9C7A3",
"4 c #D9C7A3",
"5 c #D9C7A3",
"6 c #D9C7A3",
"7 c #D9C7A3",
"8 c #D9C7A3",
"9 c #B89B6A",
"0 c #C4B08A",
"q c #D9C7A3",
"w c #B89B6A",
"e c #C4B08A",
"r c #B89B6A",
"t c #D9C7A3",
"y c #D9C7A3",
"u c #D9C7A3",
"i c #C4B08A",
"p c #C4B08A",
"a c #C4B08A",
"s c #C4B08A",
"d c #F3E6C8",
"f c #C4B08A",
"g c #F3E6C8",
"h c #C4B08A",
"j c #D9C7A3",
"k c #F3E6C8",
"l c #F3E6C8",
"z c #F3E6C8",
"x c #D9C7A3",
"c c #F3E6C8",
"v c #D9C7A3",
"b c #F3E6C8",
"n c #D9C7A3",
"m c #F3E6C8",
"M c #D9C7A3",
"N c #D9C7A3",
"B c #D9C7A3",
"V c #D9C7A3",
"C c #F3E6C8",
"Z c #D9C7A3",
"A c #F3E6C8",
"S c #F3E6C8",
"D c #D9C7A3",
"F c #D9C7A3",
"G c #D9C7A3",
"H c #F3E6C8",
"J c #F3E6C8",
"K c #D9C7A3",
"L c #D9C7A3",
"P c #D9C7A3",
"I c #D9C7A3",
"U c #D9C7A3",
"Y c #D9C7A3",
/* pixels */
"                    ",
"OOOOOOOOOOOOOOOOOOOO",
"oooooooooooooooooooo",
"222              222",
"tt .............. gt",
"U *%%%%%%%%%%%%%%% g",
"M *&&&&&&&&&&&&&&& A",
"G *>>>Xrs>>sr0l>>> H",
"j *44XC#-aa-#d0444 b",
"n *66w#=#9-#=#w666 S",
"Z *55e-#=::=#-e555 c",
"F *,,,e9:==:-e,,,, k",
"@ *<<<h-:==:9h<<<< m",
"D *77p-#=::=#-p777 N",
"B *33w#=#-9#=#w333 K",
"v *88XJ#-ii-#d0888 V",
"L *;;;Xrf;;fr0z;;; x",
"I *$$$$$$$$$$$$$$$ P",
"Y *............... u",
"yy .............. uy",
"qq@              @qq",
"111@@@@@@@@@@@@@@111",
"++++++++++++++++++++",
"XXXXXXXXXXXXXXXXXXXX"
};
