/* XPM */
static char *close_inactive[] = {
/* columns rows colors chars-per-pixel */
"20 24 66 1 ",
"  c #B89B6A",
". c #F3E6C8",
"X c #F3E6C8",
"o c #F3E6C8",
"O c #D9C7A3",
"+ c #C4B08A",
"@ c #B89B6A",
"# c #F3E6C8",
"$ c #F3E6C8",
"% c #F3E6C8",
"& c #D9C7A3",
"* c #F3E6C8",
"= c #8A7349",
"- c #F3E6C8",
"; c #F3E6C8",
": c #B89B6A",
"> c #D9C7A3",
", c #B89B6A",
"< c #F3E6C8",
"1 c #F3E6C8",
"2 c #8A7349",
"3 c #F3E6C8",
"4 c #F3E6C8",
"5 c #F3E6C8",
"6 c #D9C7A3",
"7 c #F3E6C8",
"8 c #D9C7A3",
"9 c #F3E6C8",
"0 c #F3E6C8",
"q c #F3E6C8",
"w c #F3E6C8",
"e c #F3E6C8",
"r c #D9C7A3",
"t c #F3E6C8",
"y c #F3E6C8",
"u c #F3E6C8",
"i c #F3E6C8",
"p c #D9C7A3",
"a c #F3E6C8",
"s c #F3E6C8",
"d c #F3E6C8",
"f c #F3E6C8",
"g c #F3E6C8",
"h c #F3E6C8",
"j c #D9C7A3",
"k c #D9C7A3",
"l c #F3E6C8",
"z c #8A7349",
"x c #F3E6C8",
"c c #F3E6C8",
"v c #F3E6C8",
"b c #D9C7A3",
"n c #D9C7A3",
"m c #D9C7A3",
"M c #F3E6C8",
"N c #D9C7A3",
"B c #F3E6C8",
"V c #B89B6A",
"C c #8A7349",
"Z c #B89B6A",
"A c #8A7349",
"S c #D9C7A3",
"D c #D9C7A3",
"F c #B89B6A",
"G c #D9C7A3",
"H c #D9C7A3",
/* pixels */
"@@@@@@@@@@@@@@@@@@@@",
"....................",
"558&&&&&&&&&&&&&&855",
"h>j              j>h",
">k aXXXXXXXXXXXXa k>",
"> #XXXXXXXXXXXXXX0 >",
"> Xoooooooooooooo. >",
"n XoooocoooocbHoo. n",
"p XoooZ:7oo7:zboo. p",
"m Xoof:=:77:=:foo. m",
"N X$$$3:=V,=:3$$$. N",
"i X$$$$3V==,3$$$$. i",
"d X....w2==2w..... d",
"9 X111M,=CA=,M111. 9",
"s X44q,=,tt,=,q44. s",
"g X<<<F2B<<B2zG<<. g",
"v X;;;;y;;;;ySD;;. v",
"e X##############. e",
"l #**************0 l",
"x0 O------------O 0x",
"r89              98r",
"66u%%%%%%%%%%%%%%u66",
"OOOOOOOOOOOOOOOOOOOO",
"++++++++++++++++++++"
};
