/* XPM */
static char *hide_active[] = {
/* columns rows colors chars-per-pixel */
"20 24 45 1 ",
"  c #8A7349",
". c #B89B6A",
"X c #F3E6C8",
"o c #D9C7A3",
"O c #F3E6C8",
"+ c #8A7349",
"@ c #D9C7A3",
"# c #D9C7A3",
"$ c #F3E6C8",
"% c #D9C7A3",
"& c #D9C7A3",
"* c #D9C7A3",
"= c #D9C7A3",
"- c #D9C7A3",
"; c #D9C7A3",
": c #D9C7A3",
"> c #D9C7A3",
", c #D9C7A3",
"< c #D9C7A3",
"1 c #D9C7A3",
"2 c #D9C7A3",
"3 c #D9C7A3",
"4 c #D9C7A3",
"5 c #D9C7A3",
"6 c #D9C7A3",
"7 c #D9C7A3",
"8 c #D9C7A3",
"9 c #D9C7A3",
"0 c #D9C7A3",
"q c #D9C7A3",
"w c #D9C7A3",
"e c #D9C7A3",
"r c #D9C7A3",
"t c #D9C7A3",
"y c #D9C7A3",
"u c #D9C7A3",
"i c #D9C7A3",
"p c #D9C7A3",
"a c #D9C7A3",
"s c #D9C7A3",
"d c #C4B08A",
"f c #D9C7A3",
"g c #D9C7A3",
"h c #D9C7A3",
"j c #D9C7A3",
/* pixels */
"++++++++++++++++++++",
"XXXXXXXXXXXXXXXXXXXX",
"00o&&&&&&&&&&&&&&o00",
"#8f              f8#",
"85 7XXXXXXXXXXXX7 58",
"2 oOOOOOOOOOOOOOO5 2",
"q O**************o q",
"a O==============o a",
"1 O##############o 1",
"u O%%%%%%%%%%%%%%o u",
"w O::::::::::::::o w",
"h O>>>>>>>>>>>>>>o h",
"t Oooooooooooooooo t",
"e O33..........33o e",
"i O11.$$$$$$$$.11o i",
"g O99.$$$$$$$$.99o g",
"r O22..........22o r",
"j O--------------o j",
"p o;;;;;;;;;;;;;;5 p",
"y4 d<<<<<<<<<<<<d 4y",
"so7              7os",
"664,,,,,,,,,,,,,,466",
"@@@@@@@@@@@@@@@@@@@@",
"...................."
};
