/* XPM */
static char *hide_pressed[] = {
/* columns rows colors chars-per-pixel */
"20 24 54 1 ",
"  c #8A7349",
". c #B89B6A",
"X c #D9C7A3",
"o c #D9C7A3",
"O c #F3E6C8",
"+ c #D9C7A3",
"@ c #D9C7A3",
"# c #F3E6C8",
"$ c #D9C7A3",
"% c #D9C7A3",
"& c #D9C7A3",
"* c #D9C7A3",
"= c #D9C7A3",
"- c #D9C7A3",
"; c #D9C7A3",
": c #D9C7A3",
"> c #D9C7A3",
", c #C4B08A",
"< c #D9C7A3",
"1 c #D9C7A3",
"2 c #D9C7A3",
"3 c #D9C7A3",
"4 c #D9C7A3",
"5 c #D9C7A3",
"6 c #D9C7A3",
"7 c #D9C7A3",
"8 c #D9C7A3",
"9 c #D9C7A3",
"0 c #F3E6C8",
"q c #D9C7A3",
"w c #D9C7A3",
"e c #D9C7A3",
"r c #D9C7A3",
"t c #D9C7A3",
"y c #D9C7A3",
"u c #F3E6C8",
"i c #D9C7A3",
"p c #D9C7A3",
"a c #D9C7A3",
"s c #D9C7A3",
"d c #F3E6C8",
"f c #F3E6C8",
"g c #D9C7A3",
"h c #D9C7A3",
"j c #F3E6C8",
"k c #D9C7A3",
"l c #D9C7A3",
"z c #D9C7A3",
"x c #F3E6C8",
"c c #D9C7A3",
"v c #F3E6C8",
"b c #F3E6C8",
"n c #D9C7A3",
"m c #D9C7A3",
/* pixels */
"                    ",
"OOOOOOOOOOOOOOOOOOOO",
"++++++++++++++++++++",
"<<<              <<<",
"88 XXXXXXXXXXXXXX 08",
"a ,*************** 0",
"z ,::::::::::::::: f",
"m ,=============== v",
"n ,;;;;;;;;;;;;;;; d",
"p ,&&&&&&&&&&&&&&& j",
"y ,%%%%%%%%%%%%%%% x",
"s ,>>>>>>>>>>>>>>> b",
"@ ,$$$$$$$$$$$$$$$ u",
"g ,22..........222 q",
"k ,44.########.444 t",
"h ,33.########.333 r",
"c ,55..........555 i",
"w ,--------------- l",
"e ,XXXXXXXXXXXXXXX 9",
"77 XXXXXXXXXXXXXX 97",
"66@              @66",
"111@@@@@@@@@@@@@@111",
"oooooooooooooooooooo",
"...................."
};
