/* XPM */
static char *hide_inactive[] = {
/* columns rows colors chars-per-pixel */
"20 24 42 1 ",
"  c #B89B6A",
". c #F3E6C8",
"X c #F3E6C8",
"o c #F3E6C8",
"O c #F3E6C8",
"+ c #D9C7A3",
"@ c #C4B08A",
"# c #B89B6A",
"$ c #8A7349",
"% c #F3E6C8",
"& c #F3E6C8",
"* c #F3E6C8",
"= c #F3E6C8",
"- c #D9C7A3",
"; c #F3E6C8",
": c #F3E6C8",
"> c #D9C7A3",
", c #F3E6C8",
"< c #F3E6C8",
"1 c #D9C7A3",
"2 c #D9C7A3",
"3 c #F3E6C8",
"4 c #F3E6C8",
"5 c #F3E6C8",
"6 c #F3E6C8",
"7 c #F3E6C8",
"8 c #D9C7A3",
"9 c #F3E6C8",
"0 c #F3E6C8",
"q c #F3E6C8",
"w c #D9C7A3",
"e c #D9C7A3",
"r c #D9C7A3",
"t c #D9C7A3",
"y c #F3E6C8",
"u c #F3E6C8",
"i c #D9C7A3",
"p c #F3E6C8",
"a c #F3E6C8",
"s c #F3E6C8",
"d c #D9C7A3",
"f c #F3E6C8",
/* pixels */
"####################",
"XXXXXXXXXXXXXXXXXXXX",
"442--------------244",
"0>t              t>0",
">8 7oooooooooooo7 8>",
"> %oooooooooooooo3 >",
"> o..............X >",
"d o..............X d",
"e o..............X e",
"i o..............X i",
"r oOOOOOOOOOOOOOOX r",
"q oOOOOOOOOOOOOOOX q",
"p oXXXXXXXXXXXXXXX p",
"5 o&&&&&&&&&&&&&&X 5",
"u o<<<$$$$$$$$<<<X u",
"y o,,,$$$$$$$$,,,X y",
"a o==============X a",
"6 o%%%%%%%%%%%%%%X 6",
"s %;;;;;;;;;;;;;;3 s",
"f3 +::::::::::::+ 3f",
"w25              52w",
"119**************911",
"++++++++++++++++++++",
"@@@@@@@@@@@@@@@@@@@@"
};
