/* XPM */
static char *maximize_toggled_pressed[] = {
/* columns rows colors chars-per-pixel */
"20 24 54 1 ",
"  c #8A7349",
". c #B89B6A",
"X c #D9C7A3",
"o c #F3E6C8",
"O c #D9C7A3",
"+ c #D9C7A3",
"@ c #D9C7A3",
"# c #D9C7A3",
"$ c #D9C7A3",
"% c #D9C7A3",
"& c #D9C7A3",
"* c #D9C7A3",
"= c #D9C7A3",
"- c #C4B08A",
"; c #D9C7A3",
": c #D9C7A3",
"> c #D9C7A3",
", c #D9C7A3",
"< c #D9C7A3",
"1 c #D9C7A3",
"2 c #D9C7A3",
"3 c #D9C7A3",
"4 c #D9C7A3",
"5 c #D9C7A3",
"6 c #D9C7A3",
"7 c #D9C7A3",
"8 c #D9C7A3",
"9 c #F3E6C8",
"0 c #D9C7A3",
"q c #F3E6C8",
"w c #D9C7A3",
"e c #D9C7A3",
"r c #F3E6C8",
"t c #D9C7A3",
"y c #D9C7A3",
"u c #F3E6C8",
"i c #D9C7A3",
"p c #D9C7A3",
"a c #D9C7A3",
"s c #D9C7A3",
"d c #D9C7A3",
"f c #D9C7A3",
"g c #D9C7A3",
"h c #D9C7A3",
"j c #D9C7A3",
"k c #D9C7A3",
"l c #F3E6C8",
"z c #D9C7A3",
"x c #F3E6C8",
"c c #F3E6C8",
"v c #D9C7A3",
"b c #D9C7A3",
"n c #D9C7A3",
"m c #F3E6C8",
/* pixels */
"                    ",
"++++++++++++++++++++",
"@@@@@@@@@@@@@@@@@@@@",
"555              555",
"77 XXXXXXXXXXXXXX 97",
"y -$$$$$$$$$$$$$$$ 9",
"i -&&&&&&&&&&&&&&& m",
"t -%%%%%%%%%%%%%%% x",
"k ->>>........>>>> c",
"d -<<<.oooooo.<<<< u",
"e -333.oooooo.3333 r",
"f -:::.o....o.:::: l",
"# -;;;.o.;;.o.;;;; q",
"b -,,,.o....o.,,,, n",
"p -111.oooooo.1111 v",
"j -222........2222 a",
"s -*************** g",
"z -=============== h",
"w -XXXXXXXXXXXXXXX 0",
"88 XXXXXXXXXXXXXX 08",
"66#              #66",
"444##############444",
"OOOOOOOOOOOOOOOOOOOO",
"...................."
};
