/* XPM */
static char *maximize_toggled_active[] = {
/* columns rows colors chars-per-pixel */
"20 24 47 1 ",
"  c #8A7349",
". c #B89B6A",
"X c #D9C7A3",
"o c #F3E6C8",
"O c #F3E6C8",
"+ c #8A7349",
"@ c #D9C7A3",
"# c #D9C7A3",
"$ c #D9C7A3",
"% c #D9C7A3",
"& c #D9C7A3",
"* c #D9C7A3",
"= c #D9C7A3",
"- c #D9C7A3",
"; c #D9C7A3",
": c #D9C7A3",
"> c #F3E6C8",
", c #D9C7A3",
"< c #D9C7A3",
"1 c #D9C7A3",
"2 c #D9C7A3",
"3 c #D9C7A3",
"4 c #D9C7A3",
"5 c #D9C7A3",
"6 c #D9C7A3",
"7 c #D9C7A3",
"8 c #D9C7A3",
"9 c #D9C7A3",
"0 c #D9C7A3",
"q c #D9C7A3",
"w c #D9C7A3",
"e c #D9C7A3",
"r c #D9C7A3",
"t c #D9C7A3",
"y c #D9C7A3",
"u c #D9C7A3",
"i c #D9C7A3",
"p c #D9C7A3",
"a c #D9C7A3",
"s c #C4B08A",
"d c #D9C7A3",
"f c #D9C7A3",
"g c #D9C7A3",
"h c #D9C7A3",
"j c #D9C7A3",
"k c #D9C7A3",
"l c #D9C7A3",
/* pixels */
"++++++++++++++++++++",
"####################",
"00X;;;;;;;;;;;;;;X00",
"k6f              f6k",
"67 q>>>>>>>>>>>>q 76",
"$ Xoooooooooooooo7 $",
"u o==============X u",
"p o--------------X p",
", o<<<........<<<X ,",
"e o111.OOOOOO.111X e",
"h o555.OOOOOO.555X h",
"d o222.O....O.222X d",
"l oXXX.O.XX.O.XXXX l",
"j o444.O....O.444X j",
"r o,,,.OOOOOO.,,,X r",
"w o333........333X w",
"g o$$$$$$$$$$$$$$X g",
"t o&&&&&&&&&&&&&&X t",
"y X%%%%%%%%%%%%%%7 y",
"a9 s::::::::::::s 9a",
"iXq              qXi",
"889**************988",
"@@@@@@@@@@@@@@@@@@@@",
"...................."
};
