/* XPM */
static char *maximize_pressed[] = {
/* columns rows colors chars-per-pixel */
"20 24 54 1 ",
"  c #8A7349",
". c #B89B6A",
"X c #D9C7A3",
"o c #F3E6C8",
"O c #F3E6C8",
"+ c #D9C7A3",
"@ c #D9C7A3",
"# c #D9C7A3",
"$ c #D9C7A3",
"% c #D9C7A3",
"& c #D9C7A3",
"* c #C4B08A",
"= c #D9C7A3",
"- c #D9C7A3",
"; c #D9C7A3",
": c #D9C7A3",
"> c #D9C7A3",
", c #D9C7A3",
"< c #D9C7A3",
"1 c #D9C7A3",
"2 c #D9C7A3",
"3 c #D9C7A3",
"4 c #D9C7A3",
"5 c #D9C7A3",
"6 c #D9C7A3",
"7 c #D9C7A3",
"8 c #D9C7A3",
"9 c #F3E6C8",
"0 c #D9C7A3",
"q c #D9C7A3",
"w c #F3E6C8",
"e c #D9C7A3",
"r c #D9C7A3",
"t c #D9C7A3",
"y c #D9C7A3",
"u c #D9C7A3",
"i c #F3E6C8",
"p c #D9C7A3",
"a c #D9C7A3",
"s c #D9C7A3",
"d c #F3E6C8",
"f c #F3E6C8",
"g c #D9C7A3",
"h c #D9C7A3",
"j c #D9C7A3",
"k c #D9C7A3",
"l c #D9C7A3",
"z c #D9C7A3",
"x c #D9C7A3",
"c c #F3E6C8",
"v c #D9C7A3",
"b c #F3E6C8",
"n c #D9C7A3",
"m c #F3E6C8",
/* pixels */
"                    ",
"OOOOOOOOOOOOOOOOOOOO",
"@@@@@@@@@@@@@@@@@@@@",
">>>              >>>",
"88 XXXXXXXXXXXXXX 98",
"t *$$$$$$$$$$$$$$$ 9",
"u *%%%%%%%%%%%%%%% f",
"r *11..........111 w",
"s *22.oooooooo.222 m",
"k *<<.oooooooo.<<< d",
"j *55.o......o.555 b",
"h *--.o.----.o.--- i",
"# *;;.o.;;;;.o.;;; c",
"p *==.o.====.o.=== y",
"z *33.o......o.333 e",
"v *,,.oooooooo.,,, l",
"q *44..........444 g",
"a *&&&&&&&&&&&&&&& n",
"x *XXXXXXXXXXXXXXX 0",
"77 XXXXXXXXXXXXXX 07",
"66#              #66",
":::##############:::",
"++++++++++++++++++++",
"...................."
};
