/* XPM */
static char *maximize_toggled_inactive[] = {
/* columns rows colors chars-per-pixel */
"20 24 42 1 ",
"  c #B89B6A",
". c #F3E6C8",
"X c #F3E6C8",
"o c #F3E6C8",
"O c #8A7349",
"+ c #D9C7A3",
"@ c #B89B6A",
"# c #F3E6C8",
"$ c #C4B08A",
"% c #F3E6C8",
"& c #F3E6C8",
"* c #F3E6C8",
"= c #F3E6C8",
"- c #D9C7A3",
"; c #F3E6C8",
": c #F3E6C8",
"> c #F3E6C8",
", c #F3E6C8",
"< c #D9C7A3",
"1 c #D9C7A3",
"2 c #D9C7A3",
"3 c #F3E6C8",
"4 c #F3E6C8",
"5 c #F3E6C8",
"6 c #F3E6C8",
"7 c #D9C7A3",
"8 c #D9C7A3",
"9 c #F3E6C8",
"0 c #F3E6C8",
"q c #F3E6C8",
"w c #D9C7A3",
"e c #F3E6C8",
"r c #F3E6C8",
"t c #F3E6C8",
"y c #D9C7A3",
"u c #D9C7A3",
"i c #D9C7A3",
"p c #F3E6C8",
"a c #F3E6C8",
"s c #D9C7A3",
"d c #F3E6C8",
"f c #F3E6C8",
/* pixels */
"@@@@@@@@@@@@@@@@@@@@",
"XXXXXXXXXXXXXXXXXXXX",
"442--------------244",
"0<s              s<0",
"<8 9oooooooooooo9 8<",
"< %oooooooooooooo3 <",
"< o..............X <",
"y o..............X y",
"7 o..............X 7",
"i o....OOOOOO....X i",
"u o####OOOOOO####X u",
"a o####O####O####X a",
"d oXXXXOXXXXOXXXXX d",
"5 o::::O::::O::::X 5",
"q o,,,,OOOOOO,,,,X q",
"p o&&&&&&&&&&&&&&X p",
"6 o**************X 6",
"e o%%%%%%%%%%%%%%X e",
"t %;;;;;;;;;;;;;;3 t",
"r3 +>>>>>>>>>>>>+ 3r",
"w25              52w",
"11f==============f11",
"++++++++++++++++++++",
"$$$$$$$$$$$$$$$$$$$$"
};
