/* XPM */
static char *maximize_inactive[] = {
/* columns rows colors chars-per-pixel */
"20 24 42 1 ",
"  c #B89B6A",
". c #F3E6C8",
"X c #F3E6C8",
"o c #F3E6C8",
"O c #8A7349",
"+ c #F3E6C8",
"@ c #D9C7A3",
"# c #C4B08A",
"$ c #B89B6A",
"% c #F3E6C8",
"& c #F3E6C8",
"* c #F3E6C8",
"= c #D9C7A3",
"- c #F3E6C8",
"; c #F3E6C8",
": c #F3E6C8",
"> c #F3E6C8",
", c #D9C7A3",
"< c #F3E6C8",
"1 c #D9C7A3",
"2 c #F3E6C8",
"3 c #D9C7A3",
"4 c #F3E6C8",
"5 c #F3E6C8",
"6 c #D9C7A3",
"7 c #D9C7A3",
"8 c #F3E6C8",
"9 c #F3E6C8",
"0 c #F3E6C8",
"q c #F3E6C8",
"w c #D9C7A3",
"e c #D9C7A3",
"r c #F3E6C8",
"t c #D9C7A3",
"y c #F3E6C8",
"u c #F3E6C8",
"i c #D9C7A3",
"p c #F3E6C8",
"a c #F3E6C8",
"s c #F3E6C8",
"d c #D9C7A3",
"f c #F3E6C8",
/* pixels */
"$$$$$$$$$$$$$$$$$$$$",
"....................",
"441==============144",
"p,6              6,p",
",d 0oooooooooooo0 d,",
", %oooooooooooooo2 ,",
", oXXXXXXXXXXXXXX. ,",
"t oXXXXXXXXXXXXXX. t",
"e oXXXOOOOOOOOXXX. e",
"i oXXXOOOOOOOOXXX. i",
"7 o+++O++++++O+++. 7",
"u o+++O++++++O+++. u",
"y o...O......O.... y",
"5 o;;;O;;;;;;O;;;. 5",
"q o:::O::::::O:::. q",
"r o<<<OOOOOOOO<<<. r",
"a o**************. a",
"f o%%%%%%%%%%%%%%. f",
"s %--------------2 s",
"82 @>>>>>>>>>>>>@ 28",
"w15              51w",
"339&&&&&&&&&&&&&&933",
"@@@@@@@@@@@@@@@@@@@@",
"####################"
};
