/* XPM */
static char *maximize_active[] = {
/* columns rows colors chars-per-pixel */
"20 24 45 1 ",
"  c #B89B6A",
". c #8A7349",
"X c #F3E6C8",
"o c #F3E6C8",
"O c #F3E6C8",
"+ c #D9C7A3",
"@ c #8A7349",
"# c #D9C7A3",
"$ c #D9C7A3",
"% c #D9C7A3",
"& c #D9C7A3",
"* c #D9C7A3",
"= c #D9C7A3",
"- c #D9C7A3",
"; c #D9C7A3",
": c #D9C7A3",
"> c #D9C7A3",
", c #D9C7A3",
"< c #D9C7A3",
"1 c #D9C7A3",
"2 c #D9C7A3",
"3 c #D9C7A3",
"4 c #D9C7A3",
"5 c #D9C7A3",
"6 c #D9C7A3",
"7 c #D9C7A3",
"8 c #D9C7A3",
"9 c #D9C7A3",
"0 c #D9C7A3",
"q c #D9C7A3",
"w c #D9C7A3",
"e c #D9C7A3",
"r c #D9C7A3",
"t c #D9C7A3",
"y c #D9C7A3",
"u c #D9C7A3",
"i c #D9C7A3",
"p c #D9C7A3",
"a c #D9C7A3",
"s c #D9C7A3",
"d c #D9C7A3",
"f c #D9C7A3",
"g c #D9C7A3",
"h c #D9C7A3",
"j c #C4B08A",
/* pixels */
"@@@@@@@@@@@@@@@@@@@@",
"oooooooooooooooooooo",
"77+==============+77",
",0t..............t0,",
"01.2oooooooooooo2.10",
"<.+OOOOOOOOOOOOOO1.<",
"g.O%%%%%%%%%%%%%%+.g",
"d.O66          66+.d",
">.O,, XXXXXXXX ,,+.>",
"p.O44 XXXXXXXX 44+.p",
"w.O99 X      X 99+.w",
"r.O;; X ;;;; X ;;+.r",
"h.O++ X ++++ X +++.h",
"a.O:: X :::: X ::+.a",
"e.O>> X      X >>+.e",
"i.O55 XXXXXXXX 55+.i",
"y.O<<          <<+.y",
"q.O&&&&&&&&&&&&&&+.q",
"f.+**************1.f",
"s3.j------------j.3s",
"u+2..............2+u",
"883$$$$$$$$$$$$$$388",
"####################",
"                    "
};
