/* XPM */
static char *menu_active[] = {
/* columns rows colors chars-per-pixel */
"20 24 24 1 ",
"  c #D9C7A3",
". c #D9C7A3",
"X c #D9C7A3",
"o c #D9C7A3",
"O c #D9C7A3",
"+ c #D9C7A3",
"@ c #D9C7A3",
"# c #D9C7A3",
"$ c #D9C7A3",
"% c #D9C7A3",
"& c #D9C7A3",
"* c #D9C7A3",
"= c #D9C7A3",
"- c #D9C7A3",
"; c #D9C7A3",
": c #D9C7A3",
"> c #F3E6C8",
", c #D9C7A3",
"< c #D9C7A3",
"1 c #8A7349",
"2 c #D9C7A3",
"3 c #D9C7A3",
"4 c #B89B6A",
"5 c #D9C7A3",
/* pixels */
"11111111111111111111",
">>>>>>>>>>>>>>>>>>>>",
"====================",
"--------------------",
"$$$$$$$$$$$$$$$$$$$$",
",,,,,,,,,,,,,,,,,,,,",
"55555555555555555555",
"@@@@@@@@@@@@@@@@@@@@",
"&&&&&&&&&&&&&&&&&&&&",
"22222222222222222222",
";;;;;;;;;;;;;;;;;;;;",
"++++++++++++++++++++",
"OOOOOOOOOOOOOOOOOOOO",
"%%%%%%%%%%%%%%%%%%%%",
"oooooooooooooooooooo",
"33333333333333333333",
"XXXXXXXXXXXXXXXXXXXX",
"::::::::::::::::::::",
"********************",
"####################",
"....................",
"                    ",
"<<<<<<<<<<<<<<<<<<<<",
"44444444444444444444"
};
