/* XPM */
static char *menu_inactive[] = {
/* columns rows colors chars-per-pixel */
"20 24 24 1 ",
"  c #D9C7A3",
". c #C4B08A",
"X c #D9C7A3",
"o c #D9C7A3",
"O c #F3E6C8",
"+ c #D9C7A3",
"@ c #F3E6C8",
"# c #F3E6C8",
"$ c #F3E6C8",
"% c #D9C7A3",
"& c #B89B6A",
"* c #F3E6C8",
"= c #F3E6C8",
"- c #F3E6C8",
"; c #D9C7A3",
": c #D9C7A3",
"> c #D9C7A3",
", c #F3E6C8",
"< c #F3E6C8",
"1 c #F3E6C8",
"2 c #D9C7A3",
"3 c #F3E6C8",
"4 c #D9C7A3",
"5 c #D9C7A3",
/* pixels */
"&&&&&&&&&&&&&&&&&&&&",
"OOOOOOOOOOOOOOOOOOOO",
"$$$$$$$$$$$$$$$$$$$$",
"33333333333333333333",
"====================",
"11111111111111111111",
"********************",
",,,,,,,,,,,,,,,,,,,,",
"--------------------",
"<<<<<<<<<<<<<<<<<<<<",
"@@@@@@@@@@@@@@@@@@@@",
"####################",
";;;;;;;;;;;;;;;;;;;;",
"++++++++++++++++++++",
">>>>>>>>>>>>>>>>>>>>",
"22222222222222222222",
"55555555555555555555",
"XXXXXXXXXXXXXXXXXXXX",
"oooooooooooooooooooo",
"%%%%%%%%%%%%%%%%%%%%",
"::::::::::::::::::::",
"                    ",
"44444444444444444444",
"...................."
};
