/* XPM */
static char *title___inactive[] = {
/* columns rows colors chars-per-pixel */
"5 24 24 1 ",
"  c #E6D3AD",
". c #C4B08A",
"X c #E6D3AD",
"o c #E6D3AD",
"O c #F3E6C8",
"+ c #E6D3AD",
"@ c #F3E6C8",
"# c #F3E6C8",
"$ c #F3E6C8",
"% c #E6D3AD",
"& c #B89B6A",
"* c #F3E6C8",
"= c #F3E6C8",
"- c #F3E6C8",
"; c #E6D3AD",
": c #E6D3AD",
"> c #E6D3AD",
", c #F3E6C8",
"< c #F3E6C8",
"1 c #F3E6C8",
"2 c #E6D3AD",
"3 c #F3E6C8",
"4 c #E6D3AD",
"5 c #E6D3AD",
/* pixels */
"&&&&&",
"OOOOO",
"$$$$$",
"33333",
"=====",
"11111",
"*****",
",,,,,",
"-----",
"<<<<<",
"@@@@@",
"#####",
";;;;;",
"+++++",
">>>>>",
"22222",
"55555",
"XXXXX",
"ooooo",
"%%%%%",
":::::",
"     ",
"44444",
"....."
};
