/* XPM */
static char * top_right_active_xpm[] = {
"5 24 30 1",
" 	c None",
".	c #D9C7A3",
"+	c #8A7349",
"@	c #B89B6A",
"#	c #D9C7A3",
"$	c #D9C7A3",
"%	c #D9C7A3",
"&	c #D9C7A3",
"*	c #D9C7A3",
"=	c #D9C7A3",
"-	c #D9C7A3",
";	c #D9C7A3",
">	c #D9C7A3",
",	c #D9C7A3",
"'	c #D9C7A3",
")	c #D9C7A3",
"!	c #D9C7A3",
"~	c #D9C7A3",
"{	c #D9C7A3",
"]	c #8A7349",
"^	c #D9C7A3",
"/	c #D9C7A3",
"(	c #D9C7A3",
"_	c #F3E6C8",
":	c #D9C7A3",
"<	c #B89B6A",
"[	c #D9C7A3",
"}	c #D9C7A3",
"|	c #8A7349",
"1	c #F3E6C8",
"     ",
"<]   ",
"__]  ",
"}}:] ",
"[[:< ",
"%%%.+",
",,,.+",
"===.+",
"'''.+",
"{{{.+",
"$$$.+",
"~~~.+",
"&&&.+",
";;;.+",
"***.+",
"///.+",
"!!!.+",
"^^^.+",
"(((.+",
"))).+",
"###.+",
">>>.+",
"---.+",
"@@@@|"};
