/* XPM */
static char * top_left_active_xpm[] = {
"5 24 29 1",
" 	c None",
".	c #8A7349",
"+	c #F3E6C8",
"@	c #F3E6C8",
"#	c #B89B6A",
"$	c #D9C7A3",
"%	c #D9C7A3",
"&	c #D9C7A3",
"*	c #D9C7A3",
"=	c #D9C7A3",
"-	c #8A7349",
";	c #D9C7A3",
">	c #D9C7A3",
",	c #D9C7A3",
"'	c #D9C7A3",
")	c #D9C7A3",
"!	c #D9C7A3",
"~	c #D9C7A3",
"{	c #D9C7A3",
"]	c #D9C7A3",
"^	c #D9C7A3",
"/	c #D9C7A3",
"(	c #D9C7A3",
"_	c #D9C7A3",
":	c #B89B6A",
"<	c #D9C7A3",
"[	c #D9C7A3",
"}	c #8A7349",
"|	c #F3E6C8",
"     ",
"   -:",
"  -@@",
" -@<<",
" :@[[",
".+&&&",
".+,,,",
".+{{{",
".+***",
".+>>>",
".+$$$",
".+^^^",
".+===",
".+%%%",
".+///",
".+'''",
".+)))",
".+]]]",
".+~~~",
".+;;;",
".+(((",
".+!!!",
".+___",
"}####"};
