/* XPM */
static char * top_left_inactive_xpm[] = {
"5 24 27 1",
" 	c None",
".	c #B89B6A",
"+	c #F3E6C8",
"@	c #F3E6C8",
"#	c #C4B08A",
"$	c #D9C7A3",
"%	c #D9C7A3",
"&	c #D9C7A3",
"*	c #F3E6C8",
"=	c #F3E6C8",
"-	c #D9C7A3",
";	c #D9C7A3",
">	c #D9C7A3",
",	c #F3E6C8",
"'	c #D9C7A3",
")	c #D9C7A3",
"!	c #D9C7A3",
"~	c #F3E6C8",
"{	c #F3E6C8",
"]	c #F3E6C8",
"^	c #D9C7A3",
"/	c #F3E6C8",
"(	c #D9C7A3",
"_	c #F3E6C8",
":	c #F3E6C8",
"<	c #C4B08A",
"[	c #F3E6C8",
"     ",
"   .<",
"  .@@",
" .@::",
" <@__",
".+]]]",
".+***",
".+{{{",
".+,,,",
".+///",
".+~~~",
".+===",
".+---",
".+%%%",
".+>>>",
".+&&&",
".+!!!",
".+'''",
".+;;;",
".+(((",
".+$$$",
".+^^^",
".+)))",
".####"};
