/* XPM */
static char *close_pressed[] = {
/* columns rows colors chars-per-pixel */
"20 24 73 1 ",
"  c #6E747C",
". c #B8BDC4",
"X c #8E959E",
"o c #B8BDC4",
"O c #E4E7EB",
"+ c #B8BDC4",
"@ c #B8BDC4",
"# c #E4E7EB",
"$ c #B8BDC4",
"% c #B8BDC4",
"& c #B8BDC4",
"* c #9AA1AA",
"= c #E4E7EB",
"- c #8E959E",
"; c #B8BDC4",
": c #E4E7EB",
"> c #B8BDC4",
", c #B8BDC4",
"< c #B8BDC4",
"1 c #B8BDC4",
"2 c #B8BDC4",
"3 c #B8BDC4",
"4 c #B8BDC4",
"5 c #B8BDC4",
"6 c #B8BDC4",
"7 c #B8BDC4",
"8 c #B8BDC4",
"9 c #8E959E",
"0 c #9AA1AA",
"q c #B8BDC4",
"w c #8E959E",
"e c #9AA1AA",
"r c #8E959E",
"t c #B8BDC4",
"y c #B8BDC4",
"u c #B8BDC4",
"i c #9AA1AA",
"p c #9AA1AA",
"a c #9AA1AA",
"s c #9AA1AA",
"d c #E4E7EB",
"f c #9AA1AA",
"g c #E4E7EB",
"h c #9AA1AA",
"j c #B8BDC4",
"k c #E4E7EB",
"l c #E4E7EB",
"z c #E4E7EB",
"x c #B8BDC4",
"c c #E4E7EB",
"v c #B8BDC4",
"b c #E4E7EB",
"n c #B8BDC4",
"m c #E4E7EB",
"M c #B8BDC4",
"N c #B8BDC4",
"B c #B8BDC4",
"V c #B8BDC4",
"C c #E4E7EB",
"Z c #B8BDC4",
"A c #E4E7EB",
"S c #E4E7EB",
"D c #B8BDC4",
"F c #B8BDC4",
"G c #B8BDC4",
"H c #E4E7EB",
"J c #E4E7EB",
"K c #B8BDC4",
"L c #B8BDC4",
"P c #B8BDC4",
"I c #B8BDC4",
"U c #B8BDC4",
"Y c #B8BDC4",
/* pixels */
"                    ",
"OOOOOOOOOOOOOOOOOOOO",
"oooooooooooooooooooo",
"222              222",
"tt .............. gt",
"U *%%%%%%%%%%%%%%% g",
"M *&&&&&&&&&&&&&&& A",
"G *>>>Xrs>>sr0l>>> H",
"j *44XC#-aa-#d0444 b",
"n *66w#=#9-#=#w666 S",
"Z *55e-#=::=#-e555 c",
"F *,,,e9:==:-e,,,, k",
"@ *<<<h-:==:9h<<<< m",
"D *77p-#=::=#-p777 N",
"B *33w#=#-9#=#w333 K",
"v *88XJ#-ii-#d0888 V",
"L *;;;Xrf;;fr0z;;; x",
"I *$$$$$$$$$$$$$$$ P",
"Y *............... u",
"yy .............. uy",
"qq@              @qq",
"111@@@@@@@@@@@@@@111",
"++++++++++++++++++++",
"XXXXXXXXXXXXXXXXXXXX"
};
