/* XPM */
static char *close_inactive[] = {
/* columns rows colors chars-per-pixel */
"20 24 66 1 ",
"  c #8E959E",
". c #E4E7EB",
"X c #E4E7EB",
"o c #E4E7EB",
"O c #B8BDC4",
"+ c #9AA1AA",
"@ c #8E959E",
"# c #E4E7EB",
"$ c #E4E7EB",
"% c #E4E7EB",
"& c #B8BDC4",
"* c #E4E7EB",
"= c #6E747C",
"- c #E4E7EB",
"; c #E4E7EB",
": c #8E959E",
"> c #B8BDC4",
", c #8E959E",
"< c #E4E7EB",
"1 c #E4E7EB",
"2 c #6E747C",
"3 c #E4E7EB",
"4 c #E4E7EB",
"5 c #E4E7EB",
"6 c #B8BDC4",
"7 c #E4E7EB",
"8 c #B8BDC4",
"9 c #E4E7EB",
"0 c #E4E7EB",
"q c #E4E7EB",
"w c #E4E7EB",
"e c #E4E7EB",
"r c #B8BDC4",
"t c #E4E7EB",
"y c #E4E7EB",
"u c #E4E7EB",
"i c #E4E7EB",
"p c #B8BDC4",
"a c #E4E7EB",
"s c #E4E7EB",
"d c #E4E7EB",
"f c #E4E7EB",
"g c #E4E7EB",
"h c #E4E7EB",
"j c #B8BDC4",
"k c #B8BDC4",
"l c #E4E7EB",
"z c #6E747C",
"x c #E4E7EB",
"c c #E4E7EB",
"v c #E4E7EB",
"b c #B8BDC4",
"n c #B8BDC4",
"m c #B8BDC4",
"M c #E4E7EB",
"N c #B8BDC4",
"B c #E4E7EB",
"V c #8E959E",
"C c #6E747C",
"Z c #8E959E",
"A c #6E747C",
"S c #B8BDC4",
"D c #B8BDC4",
"F c #8E959E",
"G c #B8BDC4",
"H c #B8BDC4",
/* pixels */
"@@@@@@@@@@@@@@@@@@@@",
"....................",
"558&&&&&&&&&&&&&&855",
"h>j              j>h",
">k aXXXXXXXXXXXXa k>",
"> #XXXXXXXXXXXXXX0 >",
"> Xoooooooooooooo. >",
"n XoooocoooocbHoo. n",
"p XoooZ:7oo7:zboo. p",
"m Xoof:=:77:=:foo. m",
"N X$$$3:=V,=:3$$$. N",
"i X$$$$3V==,3$$$$. i",
"d X....w2==2w..... d",
"9 X111M,=CA=,M111. 9",
"s X44q,=,tt,=,q44. s",
"g X<<<F2B<<B2zG<<. g",
"v X;;;;y;;;;ySD;;. v",
"e X##############. e",
"l #**************0 l",
"x0 O------------O 0x",
"r89              98r",
"66u%%%%%%%%%%%%%%u66",
"OOOOOOOOOOOOOOOOOOOO",
"++++++++++++++++++++"
};
