/* XPM */
static char *close_active[] = {
/* columns rows colors chars-per-pixel */
"20 24 66 1 ",
"  c #6E747C",
". c #E4E7EB",
"X c #E4E7EB",
"o c #B8BDC4",
"O c #8E959E",
"+ c #6E747C",
"@ c #B8BDC4",
"# c #E4E7EB",
"$ c #B8BDC4",
"% c #B8BDC4",
"& c #B8BDC4",
"* c #B8BDC4",
"= c #B8BDC4",
"- c #E4E7EB",
"; c #B8BDC4",
": c #B8BDC4",
"> c #E4E7EB",
", c #8E959E",
"< c #B8BDC4",
"1 c #B8BDC4",
"2 c #B8BDC4",
"3 c #B8BDC4",
"4 c #B8BDC4",
"5 c #B8BDC4",
"6 c #B8BDC4",
"7 c #8E959E",
"8 c #B8BDC4",
"9 c #B8BDC4",
"0 c #B8BDC4",
"q c #B8BDC4",
"w c #8E959E",
"e c #B8BDC4",
"r c #9AA1AA",
"t c #B8BDC4",
"y c #8E959E",
"u c #8E959E",
"i c #B8BDC4",
"p c #B8BDC4",
"a c #B8BDC4",
"s c #B8BDC4",
"d c #B8BDC4",
"f c #9AA1AA",
"g c #B8BDC4",
"h c #9AA1AA",
"j c #B8BDC4",
"k c #B8BDC4",
"l c #9AA1AA",
"z c #B8BDC4",
"x c #9AA1AA",
"c c #B8BDC4",
"v c #B8BDC4",
"b c #B8BDC4",
"n c #B8BDC4",
"m c #B8BDC4",
"M c #B8BDC4",
"N c #B8BDC4",
"B c #B8BDC4",
"V c #E4E7EB",
"C c #B8BDC4",
"Z c #B8BDC4",
"A c #B8BDC4",
"S c #B8BDC4",
"D c #E4E7EB",
"F c #E4E7EB",
"G c #E4E7EB",
"H c #E4E7EB",
/* pixels */
"++++++++++++++++++++",
"....................",
"66o%%%%%%%%%%%%%%o66",
"30C              C03",
"05 8............8 50",
": oXXXXXXXXXXXXXX5 :",
"p X**************o p",
"n X<<<Ouj<<jurF<<o n",
"1 X33OD#,AA,#Vr33o 1",
"g Xtty#-#7w#-#ytto g",
"B X99k,#->>-#,k99o B",
"S X222s7>-->ws222o S",
"m XoooZw>-->7Zoooo m",
"d Xiix,#->>-#,xiio d",
"N X11y#-#w7#-#y11o N",
"M XqqOG#,ll,#Vrqqo M",
"c X:::Ouh::hurH::o c",
"z X==============o z",
"b o$$$$$$$$$$$$$$5 b",
"ae f;;;;;;;;;;;;f ea",
"vo8              8ov",
"44e&&&&&&&&&&&&&&e44",
"@@@@@@@@@@@@@@@@@@@@",
"OOOOOOOOOOOOOOOOOOOO"
};
