/* XPM */
static char *hide_pressed[] = {
/* columns rows colors chars-per-pixel */
"20 24 54 1 ",
"  c #6E747C",
". c #8E959E",
"X c #B8BDC4",
"o c #B8BDC4",
"O c #E4E7EB",
"+ c #B8BDC4",
"@ c #B8BDC4",
"# c #E4E7EB",
"$ c #B8BDC4",
"% c #B8BDC4",
"& c #B8BDC4",
"* c #B8BDC4",
"= c #B8BDC4",
"- c #B8BDC4",
"; c #B8BDC4",
": c #B8BDC4",
"> c #B8BDC4",
", c #9AA1AA",
"< c #B8BDC4",
"1 c #B8BDC4",
"2 c #B8BDC4",
"3 c #B8BDC4",
"4 c #B8BDC4",
"5 c #B8BDC4",
"6 c #B8BDC4",
"7 c #B8BDC4",
"8 c #B8BDC4",
"9 c #B8BDC4",
"0 c #E4E7EB",
"q c #B8BDC4",
"w c #B8BDC4",
"e c #B8BDC4",
"r c #B8BDC4",
"t c #B8BDC4",
"y c #B8BDC4",
"u c #E4E7EB",
"i c #B8BDC4",
"p c #B8BDC4",
"a c #B8BDC4",
"s c #B8BDC4",
"d c #E4E7EB",
"f c #E4E7EB",
"g c #B8BDC4",
"h c #B8BDC4",
"j c #E4E7EB",
"k c #B8BDC4",
"l c #B8BDC4",
"z c #B8BDC4",
"x c #E4E7EB",
"c c #B8BDC4",
"v c #E4E7EB",
"b c #E4E7EB",
"n c #B8BDC4",
"m c #B8BDC4",
/* pixels */
"                    ",
"OOOOOOOOOOOOOOOOOOOO",
"++++++++++++++++++++",
"<<<              <<<",
"88 XXXXXXXXXXXXXX 08",
"a ,*************** 0",
"z ,::::::::::::::: f",
"m ,=============== v",
"n ,;;;;;;;;;;;;;;; d",
"p ,&&&&&&&&&&&&&&& j",
"y ,%%%%%%%%%%%%%%% x",
"s ,>>>>>>>>>>>>>>> b",
"@ ,$$$$$$$$$$$$$$$ u",
"g ,22..........222 q",
"k ,44.########.444 t",
"h ,33.########.333 r",
"c ,55..........555 i",
"w ,--------------- l",
"e ,XXXXXXXXXXXXXXX 9",
"77 XXXXXXXXXXXXXX 97",
"66@              @66",
"111@@@@@@@@@@@@@@111",
"oooooooooooooooooooo",
"...................."
};
