/* XPM */
static char *hide_active[] = {
/* columns rows colors chars-per-pixel */
"20 24 45 1 ",
"  c #6E747C",
". c #8E959E",
"X c #E4E7EB",
"o c #B8BDC4",
"O c #E4E7EB",
"+ c #6E747C",
"@ c #B8BDC4",
"# c #B8BDC4",
"$ c #E4E7EB",
"% c #B8BDC4",
"& c #B8BDC4",
"* c #B8BDC4",
"= c #B8BDC4",
"- c #B8BDC4",
"; c #B8BDC4",
": c #B8BDC4",
"> c #B8BDC4",
", c #B8BDC4",
"< c #B8BDC4",
"1 c #B8BDC4",
"2 c #B8BDC4",
"3 c #B8BDC4",
"4 c #B8BDC4",
"5 c #B8BDC4",
"6 c #B8BDC4",
"7 c #B8BDC4",
"8 c #B8BDC4",
"9 c #B8BDC4",
"0 c #B8BDC4",
"q c #B8BDC4",
"w c #B8BDC4",
"e c #B8BDC4",
"r c #B8BDC4",
"t c #B8BDC4",
"y c #B8BDC4",
"u c #B8BDC4",
"i c #B8BDC4",
"p c #B8BDC4",
"a c #B8BDC4",
"s c #B8BDC4",
"d c #9AA1AA",
"f c #B8BDC4",
"g c #B8BDC4",
"h c #B8BDC4",
"j c #B8BDC4",
/* pixels */
"++++++++++++++++++++",
"XXXXXXXXXXXXXXXXXXXX",
"00o&&&&&&&&&&&&&&o00",
"#8f              f8#",
"85 7XXXXXXXXXXXX7 58",
"2 oOOOOOOOOOOOOOO5 2",
"q O**************o q",
"a O==============o a",
"1 O##############o 1",
"u O%%%%%%%%%%%%%%o u",
"w O::::::::::::::o w",
"h O>>>>>>>>>>>>>>o h",
"t Oooooooooooooooo t",
"e O33..........33o e",
"i O11.$$$$$$$$.11o i",
"g O99.$$$$$$$$.99o g",
"r O22..........22o r",
"j O--------------o j",
"p o;;;;;;;;;;;;;;5 p",
"y4 d<<<<<<<<<<<<d 4y",
"so7              7os",
"664,,,,,,,,,,,,,,466",
"@@@@@@@@@@@@@@@@@@@@",
"...................."
};
