/* XPM */
static char *hide_inactive[] = {
/* columns rows colors chars-per-pixel */
"20 24 42 1 ",
"  c #8E959E",
". c #E4E7EB",
"X c #E4E7EB",
"o c #E4E7EB",
"O c #E4E7EB",
"+ c #B8BDC4",
"@ c #9AA1AA",
"# c #8E959E",
"$ c #6E747C",
"% c #E4E7EB",
"& c #E4E7EB",
"* c #E4E7EB",
"= c #E4E7EB",
"- c #B8BDC4",
"; c #E4E7EB",
": c #E4E7EB",
"> c #B8BDC4",
", c #E4E7EB",
"< c #E4E7EB",
"1 c #B8BDC4",
"2 c #B8BDC4",
"3 c #E4E7EB",
"4 c #E4E7EB",
"5 c #E4E7EB",
"6 c #E4E7EB",
"7 c #E4E7EB",
"8 c #B8BDC4",
"9 c #E4E7EB",
"0 c #E4E7EB",
"q c #E4E7EB",
"w c #B8BDC4",
"e c #B8BDC4",
"r c #B8BDC4",
"t c #B8BDC4",
"y c #E4E7EB",
"u c #E4E7EB",
"i c #B8BDC4",
"p c #E4E7EB",
"a c #E4E7EB",
"s c #E4E7EB",
"d c #B8BDC4",
"f c #E4E7EB",
/* pixels */
"####################",
"XXXXXXXXXXXXXXXXXXXX",
"442--------------244",
"0>t              t>0",
">8 7oooooooooooo7 8>",
"> %oooooooooooooo3 >",
"> o..............X >",
"d o..............X d",
"e o..............X e",
"i o..............X i",
"r oOOOOOOOOOOOOOOX r",
"q oOOOOOOOOOOOOOOX q",
"p oXXXXXXXXXXXXXXX p",
"5 o&&&&&&&&&&&&&&X 5",
"u o<<<$$$$$$$$<<<X u",
"y o,,,$$$$$$$$,,,X y",
"a o==============X a",
"6 o%%%%%%%%%%%%%%X 6",
"s %;;;;;;;;;;;;;;3 s",
"f3 +::::::::::::+ 3f",
"w25              52w",
"119**************911",
"++++++++++++++++++++",
"@@@@@@@@@@@@@@@@@@@@"
};
