/* XPM */
static char *maximize_inactive[] = {
/* columns rows colors chars-per-pixel */
"20 24 42 1 ",
"  c #8E959E",
". c #E4E7EB",
"X c #E4E7EB",
"o c #E4E7EB",
"O c #6E747C",
"+ c #E4E7EB",
"@ c #B8BDC4",
"# c #9AA1AA",
"$ c #8E959E",
"% c #E4E7EB",
"& c #E4E7EB",
"* c #E4E7EB",
"= c #B8BDC4",
"- c #E4E7EB",
"; c #E4E7EB",
": c #E4E7EB",
"> c #E4E7EB",
", c #B8BDC4",
"< c #E4E7EB",
"1 c #B8BDC4",
"2 c #E4E7EB",
"3 c #B8BDC4",
"4 c #E4E7EB",
"5 c #E4E7EB",
"6 c #B8BDC4",
"7 c #B8BDC4",
"8 c #E4E7EB",
"9 c #E4E7EB",
"0 c #E4E7EB",
"q c #E4E7EB",
"w c #B8BDC4",
"e c #B8BDC4",
"r c #E4E7EB",
"t c #B8BDC4",
"y c #E4E7EB",
"u c #E4E7EB",
"i c #B8BDC4",
"p c #E4E7EB",
"a c #E4E7EB",
"s c #E4E7EB",
"d c #B8BDC4",
"f c #E4E7EB",
/* pixels */
"$$$$$$$$$$$$$$$$$$$$",
"....................",
"441==============144",
"p,6              6,p",
",d 0oooooooooooo0 d,",
", %oooooooooooooo2 ,",
", oXXXXXXXXXXXXXX. ,",
"t oXXXXXXXXXXXXXX. t",
"e oXXXOOOOOOOOXXX. e",
"i oXXXOOOOOOOOXXX. i",
"7 o+++O++++++O+++. 7",
"u o+++O++++++O+++. u",
"y o...O......O.... y",
"5 o;;;O;;;;;;O;;;. 5",
"q o:::O::::::O:::. q",
"r o<<<OOOOOOOO<<<. r",
"a o**************. a",
"f o%%%%%%%%%%%%%%. f",
"s %--------------2 s",
"82 @>>>>>>>>>>>>@ 28",
"w15              51w",
"339&&&&&&&&&&&&&&933",
"@@@@@@@@@@@@@@@@@@@@",
"####################"
};
