/* XPM */
static char *maximize_toggled_inactive[] = {
/* columns rows colors chars-per-pixel */
"20 24 42 1 ",
"  c #8E959E",
". c #E4E7EB",
"X c #E4E7EB",
"o c #E4E7EB",
"O c #6E747C",
"+ c #B8BDC4",
"@ c #8E959E",
"# c #E4E7EB",
"$ c #9AA1AA",
"% c #E4E7EB",
"& c #E4E7EB",
"* c #E4E7EB",
"= c #E4E7EB",
"- c #B8BDC4",
"; c #E4E7EB",
": c #E4E7EB",
"> c #E4E7EB",
", c #E4E7EB",
"< c #B8BDC4",
"1 c #B8BDC4",
"2 c #B8BDC4",
"3 c #E4E7EB",
"4 c #E4E7EB",
"5 c #E4E7EB",
"6 c #E4E7EB",
"7 c #B8BDC4",
"8 c #B8BDC4",
"9 c #E4E7EB",
"0 c #E4E7EB",
"q c #E4E7EB",
"w c #B8BDC4",
"e c #E4E7EB",
"r c #E4E7EB",
"t c #E4E7EB",
"y c #B8BDC4",
"u c #B8BDC4",
"i c #B8BDC4",
"p c #E4E7EB",
"a c #E4E7EB",
"s c #B8BDC4",
"d c #E4E7EB",
"f c #E4E7EB",
/* pixels */
"@@@@@@@@@@@@@@@@@@@@",
"XXXXXXXXXXXXXXXXXXXX",
"442--------------244",
"0<s              s<0",
"<8 9oooooooooooo9 8<",
"< %oooooooooooooo3 <",
"< o..............X <",
"y o..............X y",
"7 o..............X 7",
"i o....OOOOOO....X i",
"u o####OOOOOO####X u",
"a o####O####O####X a",
"d oXXXXOXXXXOXXXXX d",
"5 o::::O::::O::::X 5",
"q o,,,,OOOOOO,,,,X q",
"p o&&&&&&&&&&&&&&X p",
"6 o**************X 6",
"e o%%%%%%%%%%%%%%X e",
"t %;;;;;;;;;;;;;;3 t",
"r3 +>>>>>>>>>>>>+ 3r",
"w25              52w",
"11f==============f11",
"++++++++++++++++++++",
"$$$$$$$$$$$$$$$$$$$$"
};
