/* XPM */
static char *maximize_active[] = {
/* columns rows colors chars-per-pixel */
"20 24 45 1 ",
"  c #8E959E",
". c #6E747C",
"X c #E4E7EB",
"o c #E4E7EB",
"O c #E4E7EB",
"+ c #B8BDC4",
"@ c #6E747C",
"# c #B8BDC4",
"$ c #B8BDC4",
"% c #B8BDC4",
"& c #B8BDC4",
"* c #B8BDC4",
"= c #B8BDC4",
"- c #B8BDC4",
"; c #B8BDC4",
": c #B8BDC4",
"> c #B8BDC4",
", c #B8BDC4",
"< c #B8BDC4",
"1 c #B8BDC4",
"2 c #B8BDC4",
"3 c #B8BDC4",
"4 c #B8BDC4",
"5 c #B8BDC4",
"6 c #B8BDC4",
"7 c #B8BDC4",
"8 c #B8BDC4",
"9 c #B8BDC4",
"0 c #B8BDC4",
"q c #B8BDC4",
"w c #B8BDC4",
"e c #B8BDC4",
"r c #B8BDC4",
"t c #B8BDC4",
"y c #B8BDC4",
"u c #B8BDC4",
"i c #B8BDC4",
"p c #B8BDC4",
"a c #B8BDC4",
"s c #B8BDC4",
"d c #B8BDC4",
"f c #B8BDC4",
"g c #B8BDC4",
"h c #B8BDC4",
"j c #9AA1AA",
/* pixels */
"@@@@@@@@@@@@@@@@@@@@",
"oooooooooooooooooooo",
"77+==============+77",
",0t..............t0,",
"01.2oooooooooooo2.10",
"<.+OOOOOOOOOOOOOO1.<",
"g.O%%%%%%%%%%%%%%+.g",
"d.O66          66+.d",
">.O,, XXXXXXXX ,,+.>",
"p.O44 XXXXXXXX 44+.p",
"w.O99 X      X 99+.w",
"r.O;; X ;;;; X ;;+.r",
"h.O++ X ++++ X +++.h",
"a.O:: X :::: X ::+.a",
"e.O>> X      X >>+.e",
"i.O55 XXXXXXXX 55+.i",
"y.O<<          <<+.y",
"q.O&&&&&&&&&&&&&&+.q",
"f.+**************1.f",
"s3.j------------j.3s",
"u+2..............2+u",
"883$$$$$$$$$$$$$$388",
"####################",
"                    "
};
