/* XPM */
static char *maximize_pressed[] = {
/* columns rows colors chars-per-pixel */
"20 24 54 1 ",
"  c #6E747C",
". c #8E959E",
"X c #B8BDC4",
"o c #E4E7EB",
"O c #E4E7EB",
"+ c #B8BDC4",
"@ c #B8BDC4",
"# c #B8BDC4",
"$ c #B8BDC4",
"% c #B8BDC4",
"& c #B8BDC4",
"* c #9AA1AA",
"= c #B8BDC4",
"- c #B8BDC4",
"; c #B8BDC4",
": c #B8BDC4",
"> c #B8BDC4",
", c #B8BDC4",
"< c #B8BDC4",
"1 c #B8BDC4",
"2 c #B8BDC4",
"3 c #B8BDC4",
"4 c #B8BDC4",
"5 c #B8BDC4",
"6 c #B8BDC4",
"7 c #B8BDC4",
"8 c #B8BDC4",
"9 c #E4E7EB",
"0 c #B8BDC4",
"q c #B8BDC4",
"w c #E4E7EB",
"e c #B8BDC4",
"r c #B8BDC4",
"t c #B8BDC4",
"y c #B8BDC4",
"u c #B8BDC4",
"i c #E4E7EB",
"p c #B8BDC4",
"a c #B8BDC4",
"s c #B8BDC4",
"d c #E4E7EB",
"f c #E4E7EB",
"g c #B8BDC4",
"h c #B8BDC4",
"j c #B8BDC4",
"k c #B8BDC4",
"l c #B8BDC4",
"z c #B8BDC4",
"x c #B8BDC4",
"c c #E4E7EB",
"v c #B8BDC4",
"b c #E4E7EB",
"n c #B8BDC4",
"m c #E4E7EB",
/* pixels */
"                    ",
"OOOOOOOOOOOOOOOOOOOO",
"@@@@@@@@@@@@@@@@@@@@",
">>>              >>>",
"88 XXXXXXXXXXXXXX 98",
"t *$$$$$$$$$$$$$$$ 9",
"u *%%%%%%%%%%%%%%% f",
"r *11..........111 w",
"s *22.oooooooo.222 m",
"k *<<.oooooooo.<<< d",
"j *55.o......o.555 b",
"h *--.o.----.o.--- i",
"# *;;.o.;;;;.o.;;; c",
"p *==.o.====.o.=== y",
"z *33.o......o.333 e",
"v *,,.oooooooo.,,, l",
"q *44..........444 g",
"a *&&&&&&&&&&&&&&& n",
"x *XXXXXXXXXXXXXXX 0",
"77 XXXXXXXXXXXXXX 07",
"66#              #66",
":::##############:::",
"++++++++++++++++++++",
"...................."
};
