/* XPM */
static char *maximize_toggled_pressed[] = {
/* columns rows colors chars-per-pixel */
"20 24 54 1 ",
"  c #6E747C",
". c #8E959E",
"X c #B8BDC4",
"o c #E4E7EB",
"O c #B8BDC4",
"+ c #B8BDC4",
"@ c #B8BDC4",
"# c #B8BDC4",
"$ c #B8BDC4",
"% c #B8BDC4",
"& c #B8BDC4",
"* c #B8BDC4",
"= c #B8BDC4",
"- c #9AA1AA",
"; c #B8BDC4",
": c #B8BDC4",
"> c #B8BDC4",
", c #B8BDC4",
"< c #B8BDC4",
"1 c #B8BDC4",
"2 c #B8BDC4",
"3 c #B8BDC4",
"4 c #B8BDC4",
"5 c #B8BDC4",
"6 c #B8BDC4",
"7 c #B8BDC4",
"8 c #B8BDC4",
"9 c #E4E7EB",
"0 c #B8BDC4",
"q c #E4E7EB",
"w c #B8BDC4",
"e c #B8BDC4",
"r c #E4E7EB",
"t c #B8BDC4",
"y c #B8BDC4",
"u c #E4E7EB",
"i c #B8BDC4",
"p c #B8BDC4",
"a c #B8BDC4",
"s c #B8BDC4",
"d c #B8BDC4",
"f c #B8BDC4",
"g c #B8BDC4",
"h c #B8BDC4",
"j c #B8BDC4",
"k c #B8BDC4",
"l c #E4E7EB",
"z c #B8BDC4",
"x c #E4E7EB",
"c c #E4E7EB",
"v c #B8BDC4",
"b c #B8BDC4",
"n c #B8BDC4",
"m c #E4E7EB",
/* pixels */
"                    ",
"++++++++++++++++++++",
"@@@@@@@@@@@@@@@@@@@@",
"555              555",
"77 XXXXXXXXXXXXXX 97",
"y -$$$$$$$$$$$$$$$ 9",
"i -&&&&&&&&&&&&&&& m",
"t -%%%%%%%%%%%%%%% x",
"k ->>>........>>>> c",
"d -<<<.oooooo.<<<< u",
"e -333.oooooo.3333 r",
"f -:::.o....o.:::: l",
"# -;;;.o.;;.o.;;;; q",
"b -,,,.o....o.,,,, n",
"p -111.oooooo.1111 v",
"j -222........2222 a",
"s -*************** g",
"z -=============== h",
"w -XXXXXXXXXXXXXXX 0",
"88 XXXXXXXXXXXXXX 08",
"66#              #66",
"444##############444",
"OOOOOOOOOOOOOOOOOOOO",
"...................."
};
