/* XPM */
static char *maximize_toggled_active[] = {
/* columns rows colors chars-per-pixel */
"20 24 47 1 ",
"  c #6E747C",
". c #8E959E",
"X c #B8BDC4",
"o c #E4E7EB",
"O c #E4E7EB",
"+ c #6E747C",
"@ c #B8BDC4",
"# c #B8BDC4",
"$ c #B8BDC4",
"% c #B8BDC4",
"& c #B8BDC4",
"* c #B8BDC4",
"= c #B8BDC4",
"- c #B8BDC4",
"; c #B8BDC4",
": c #B8BDC4",
"> c #E4E7EB",
", c #B8BDC4",
"< c #B8BDC4",
"1 c #B8BDC4",
"2 c #B8BDC4",
"3 c #B8BDC4",
"4 c #B8BDC4",
"5 c #B8BDC4",
"6 c #B8BDC4",
"7 c #B8BDC4",
"8 c #B8BDC4",
"9 c #B8BDC4",
"0 c #B8BDC4",
"q c #B8BDC4",
"w c #B8BDC4",
"e c #B8BDC4",
"r c #B8BDC4",
"t c #B8BDC4",
"y c #B8BDC4",
"u c #B8BDC4",
"i c #B8BDC4",
"p c #B8BDC4",
"a c #B8BDC4",
"s c #9AA1AA",
"d c #B8BDC4",
"f c #B8BDC4",
"g c #B8BDC4",
"h c #B8BDC4",
"j c #B8BDC4",
"k c #B8BDC4",
"l c #B8BDC4",
/* pixels */
"++++++++++++++++++++",
"####################",
"00X;;;;;;;;;;;;;;X00",
"k6f              f6k",
"67 q>>>>>>>>>>>>q 76",
"$ Xoooooooooooooo7 $",
"u o==============X u",
"p o--------------X p",
", o<<<........<<<X ,",
"e o111.OOOOOO.111X e",
"h o555.OOOOOO.555X h",
"d o222.O....O.222X d",
"l oXXX.O.XX.O.XXXX l",
"j o444.O....O.444X j",
"r o,,,.OOOOOO.,,,X r",
"w o333........333X w",
"g o$$$$$$$$$$$$$$X g",
"t o&&&&&&&&&&&&&&X t",
"y X%%%%%%%%%%%%%%7 y",
"a9 s::::::::::::s 9a",
"iXq              qXi",
"889**************988",
"@@@@@@@@@@@@@@@@@@@@",
"...................."
};
