/* XPM */
static char *menu_inactive[] = {
/* columns rows colors chars-per-pixel */
"20 24 24 1 ",
"  c #B8BDC4",
". c #9AA1AA",
"X c #B8BDC4",
"o c #B8BDC4",
"O c #E4E7EB",
"+ c #B8BDC4",
"@ c #E4E7EB",
"# c #E4E7EB",
"$ c #E4E7EB",
"% c #B8BDC4",
"& c #8E959E",
"* c #E4E7EB",
"= c #E4E7EB",
"- c #E4E7EB",
"; c #B8BDC4",
": c #B8BDC4",
"> c #B8BDC4",
", c #E4E7EB",
"< c #E4E7EB",
"1 c #E4E7EB",
"2 c #B8BDC4",
"3 c #E4E7EB",
"4 c #B8BDC4",
"5 c #B8BDC4",
/* pixels */
"&&&&&&&&&&&&&&&&&&&&",
"OOOOOOOOOOOOOOOOOOOO",
"$$$$$$$$$$$$$$$$$$$$",
"33333333333333333333",
"====================",
"11111111111111111111",
"********************",
",,,,,,,,,,,,,,,,,,,,",
"--------------------",
"<<<<<<<<<<<<<<<<<<<<",
"@@@@@@@@@@@@@@@@@@@@",
"####################",
";;;;;;;;;;;;;;;;;;;;",
"++++++++++++++++++++",
">>>>>>>>>>>>>>>>>>>>",
"22222222222222222222",
"55555555555555555555",
"XXXXXXXXXXXXXXXXXXXX",
"oooooooooooooooooooo",
"%%%%%%%%%%%%%%%%%%%%",
"::::::::::::::::::::",
"                    ",
"44444444444444444444",
"...................."
};
