/* XPM */
static char *menu_pressed[] = {
/* columns rows colors chars-per-pixel */
"20 24 24 1 ",
"  c #B8BDC4",
". c #B8BDC4",
"X c #B8BDC4",
"o c #B8BDC4",
"O c #B8BDC4",
"+ c #B8BDC4",
"@ c #B8BDC4",
"# c #B8BDC4",
"$ c #B8BDC4",
"% c #B8BDC4",
"& c #B8BDC4",
"* c #B8BDC4",
"= c #B8BDC4",
"- c #B8BDC4",
"; c #B8BDC4",
": c #B8BDC4",
"> c #E4E7EB",
", c #B8BDC4",
"< c #B8BDC4",
"1 c #6E747C",
"2 c #B8BDC4",
"3 c #B8BDC4",
"4 c #8E959E",
"5 c #B8BDC4",
/* pixels */
"11111111111111111111",
">>>>>>>>>>>>>>>>>>>>",
"====================",
"--------------------",
"$$$$$$$$$$$$$$$$$$$$",
",,,,,,,,,,,,,,,,,,,,",
"55555555555555555555",
"@@@@@@@@@@@@@@@@@@@@",
"&&&&&&&&&&&&&&&&&&&&",
"22222222222222222222",
";;;;;;;;;;;;;;;;;;;;",
"++++++++++++++++++++",
"OOOOOOOOOOOOOOOOOOOO",
"%%%%%%%%%%%%%%%%%%%%",
"oooooooooooooooooooo",
"33333333333333333333",
"XXXXXXXXXXXXXXXXXXXX",
"::::::::::::::::::::",
"********************",
"####################",
"....................",
"                    ",
"<<<<<<<<<<<<<<<<<<<<",
"44444444444444444444"
};
