/* XPM */
static char *title___inactive[] = {
/* columns rows colors chars-per-pixel */
"5 24 24 1 ",
"  c #C5C9CE",
". c #9AA1AA",
"X c #C5C9CE",
"o c #C5C9CE",
"O c #E4E7EB",
"+ c #C5C9CE",
"@ c #E4E7EB",
"# c #E4E7EB",
"$ c #E4E7EB",
"% c #C5C9CE",
"& c #8E959E",
"* c #E4E7EB",
"= c #E4E7EB",
"- c #E4E7EB",
"; c #C5C9CE",
": c #C5C9CE",
"> c #C5C9CE",
", c #E4E7EB",
"< c #E4E7EB",
"1 c #E4E7EB",
"2 c #C5C9CE",
"3 c #E4E7EB",
"4 c #C5C9CE",
"5 c #C5C9CE",
/* pixels */
"&&&&&",
"OOOOO",
"$$$$$",
"33333",
"=====",
"11111",
"*****",
",,,,,",
"-----",
"<<<<<",
"@@@@@",
"#####",
";;;;;",
"+++++",
">>>>>",
"22222",
"55555",
"XXXXX",
"ooooo",
"%%%%%",
":::::",
"     ",
"44444",
"....."
};
