/* XPM */
static char *title___active[] = {
/* columns rows colors chars-per-pixel */
"5 24 24 1 ",
"  c #B8BDC4",
". c #B8BDC4",
"X c #B8BDC4",
"o c #B8BDC4",
"O c #B8BDC4",
"+ c #B8BDC4",
"@ c #B8BDC4",
"# c #B8BDC4",
"$ c #B8BDC4",
"% c #B8BDC4",
"& c #B8BDC4",
"* c #B8BDC4",
"= c #B8BDC4",
"- c #B8BDC4",
"; c #B8BDC4",
": c #B8BDC4",
"> c #E4E7EB",
", c #B8BDC4",
"< c #B8BDC4",
"1 c #6E747C",
"2 c #B8BDC4",
"3 c #B8BDC4",
"4 c #8E959E",
"5 c #B8BDC4",
/* pixels */
"11111",
">>>>>",
"=====",
"-----",
"$$$$$",
",,,,,",
"55555",
"@@@@@",
"&&&&&",
"22222",
";;;;;",
"+++++",
"OOOOO",
"%%%%%",
"ooooo",
"33333",
"XXXXX",
":::::",
"*****",
"#####",
".....",
"     ",
"<<<<<",
"44444"
};
