/* XPM */
static char * top_right_active_xpm[] = {
"5 24 30 1",
" 	c None",
".	c #B8BDC4",
"+	c #6E747C",
"@	c #8E959E",
"#	c #B8BDC4",
"$	c #B8BDC4",
"%	c #B8BDC4",
"&	c #B8BDC4",
"*	c #B8BDC4",
"=	c #B8BDC4",
"-	c #B8BDC4",
";	c #B8BDC4",
">	c #B8BDC4",
",	c #B8BDC4",
"'	c #B8BDC4",
")	c #B8BDC4",
"!	c #B8BDC4",
"~	c #B8BDC4",
"{	c #B8BDC4",
"]	c #6E747C",
"^	c #B8BDC4",
"/	c #B8BDC4",
"(	c #B8BDC4",
"_	c #E4E7EB",
":	c #B8BDC4",
"<	c #8E959E",
"[	c #B8BDC4",
"}	c #B8BDC4",
"|	c #6E747C",
"1	c #E4E7EB",
"     ",
"<]   ",
"__]  ",
"}}:] ",
"[[:< ",
"%%%.+",
",,,.+",
"===.+",
"'''.+",
"{{{.+",
"$$$.+",
"~~~.+",
"&&&.+",
";;;.+",
"***.+",
"///.+",
"!!!.+",
"^^^.+",
"(((.+",
"))).+",
"###.+",
">>>.+",
"---.+",
"@@@@|"};
