/* XPM */
static char * top_right_inactive_xpm[] = {
"5 24 27 1",
" 	c None",
".	c #8E959E",
"+	c #B8BDC4",
"@	c #9AA1AA",
"#	c #B8BDC4",
"$	c #B8BDC4",
"%	c #B8BDC4",
"&	c #E4E7EB",
"*	c #E4E7EB",
"=	c #E4E7EB",
"-	c #B8BDC4",
";	c #E4E7EB",
">	c #B8BDC4",
",	c #E4E7EB",
"'	c #B8BDC4",
")	c #B8BDC4",
"!	c #B8BDC4",
"~	c #B8BDC4",
"{	c #B8BDC4",
"]	c #E4E7EB",
"^	c #E4E7EB",
"/	c #B8BDC4",
"(	c #E4E7EB",
"_	c #E4E7EB",
":	c #E4E7EB",
"<	c #9AA1AA",
"[	c #E4E7EB",
"     ",
"<.   ",
"__.  ",
"((+. ",
"::+< ",
"]]]+.",
";;;+.",
"===+.",
",,,+.",
"^^^+.",
"&&&+.",
"***+.",
"---+.",
"{{{+.",
"%%%+.",
"###+.",
"$$$+.",
"'''+.",
"!!!+.",
">>>+.",
"~~~+.",
"///+.",
")))+.",
"@@@@."};
