/* XPM */
static char * top_left_active_xpm[] = {
"5 24 29 1",
" 	c None",
".	c #6E747C",
"+	c #E4E7EB",
"@	c #E4E7EB",
"#	c #8E959E",
"$	c #B8BDC4",
"%	c #B8BDC4",
"&	c #B8BDC4",
"*	c #B8BDC4",
"=	c #B8BDC4",
"-	c #6E747C",
";	c #B8BDC4",
">	c #B8BDC4",
",	c #B8BDC4",
"'	c #B8BDC4",
")	c #B8BDC4",
"!	c #B8BDC4",
"~	c #B8BDC4",
"{	c #B8BDC4",
"]	c #B8BDC4",
"^	c #B8BDC4",
"/	c #B8BDC4",
"(	c #B8BDC4",
"_	c #B8BDC4",
":	c #8E959E",
"<	c #B8BDC4",
"[	c #B8BDC4",
"}	c #6E747C",
"|	c #E4E7EB",
"     ",
"   -:",
"  -@@",
" -@<<",
" :@[[",
".+&&&",
".+,,,",
".+{{{",
".+***",
".+>>>",
".+$$$",
".+^^^",
".+===",
".+%%%",
".+///",
".+'''",
".+)))",
".+]]]",
".+~~~",
".+;;;",
".+(((",
".+!!!",
".+___",
"}####"};
